packages/axiom-components/src/Pictogram/svgs/weather.svg

<?xml version="1.0" encoding="UTF-8"?>
<svg width="16px" height="16px" viewBox="0 0 16 16" version="1.1" xmlns="http://www.w3.org/2000/svg" xmlns:xlink="http://www.w3.org/1999/xlink">
    <!-- Generator: Sketch 46.2 (44496) - http://www.bohemiancoding.com/sketch -->
    <title>Weather</title>
    <desc>Created with Sketch.</desc>
    <defs></defs>
    <g id="Axiom-Icons" stroke="none" stroke-width="1" fill="none" fill-rule="evenodd">
        <g id="Weather" fill="#000000">
            <path d="M12.75,4.5 C12.628,4.5 12.51,4.523 12.391,4.537 C11.948,2.518 10.15,1 8,1 C5.86,1 4.053,2.519 3.607,4.535 C3.488,4.522 3.371,4.5 3.25,4.5 C1.458,4.5 0,5.958 0,7.75 C0,9.542 1.458,11 3.25,11 L5,11 C5.414,11 5.75,10.664 5.75,10.25 C5.75,9.836 5.414,9.5 5,9.5 L3.25,9.5 C2.285,9.5 1.5,8.715 1.5,7.75 C1.5,6.785 2.285,6 3.25,6 C3.717,6 4.156,6.182 4.487,6.513 C4.78,6.806 5.255,6.806 5.548,6.513 C5.841,6.22 5.841,5.745 5.548,5.452 C5.393,5.297 5.226,5.161 5.048,5.042 C5.272,3.609 6.51,2.5 8,2.5 C9.654,2.5 11,3.846 11,5.5 C11,5.86 10.937,6.213 10.813,6.547 C10.668,6.936 10.866,7.367 11.254,7.512 C11.341,7.544 11.429,7.559 11.516,7.559 C11.82,7.559 12.106,7.372 12.219,7.07 C12.343,6.734 12.411,6.385 12.453,6.03 C12.551,6.014 12.649,6 12.75,6 C13.715,6 14.5,6.785 14.5,7.75 C14.5,8.715 13.715,9.5 12.75,9.5 L12.75,9.5 L12.749,9.5 L11,9.5 C10.586,9.5 10.25,9.836 10.25,10.25 C10.25,10.664 10.586,11 11,11 L12.749,11 L12.75,11 L12.75,11 C14.542,11 16,9.542 16,7.75 C16,5.958 14.542,4.5 12.75,4.5" id="Path"></path>
            <path d="M7.6418,9.5398 C7.3178,9.6198 7.0168,9.8008 6.7998,10.0878 C6.3018,10.7498 6.4348,11.6908 7.0968,12.1888 C7.7588,12.6868 8.6998,12.5538 9.1978,11.8918 C9.3808,11.6478 9.4768,11.3668 9.4948,11.0828 L9.4958,11.0848 L9.4958,11.0728 C9.4968,11.0648 9.4958,11.0568 9.4958,11.0478 L9.4998,8.9998 L7.6418,9.5398 Z" id="Path" fill-opacity="0.75"></path>
            <path d="M3.8933,12.5397 C3.5693,12.6197 3.2673,12.8007 3.0513,13.0877 C2.5533,13.7497 2.6863,14.6907 3.3483,15.1887 C4.0103,15.6867 4.9503,15.5537 5.4483,14.8917 C5.6323,14.6477 5.7283,14.3667 5.7463,14.0837 L5.7473,14.0847 L5.7473,14.0737 L5.7473,14.0487 L5.7513,11.9997 L3.8933,12.5397 Z" id="Path" fill-opacity="0.75"></path>
        </g>
    </g>
</svg>

<svg height="16" viewBox="0 0 16 16" width="16" xmlns="http://www.w3.org/2000/svg"><g fill-rule="evenodd"><path d="m12.75 4.5c-.122 0-.24.023-.359.037-.443-2.019-2.241-3.537-4.391-3.537-2.14 0-3.947 1.519-4.393 3.535-.119-.013-.236-.035-.357-.035-1.792 0-3.25 1.458-3.25 3.25s1.458 3.25 3.25 3.25h1.75c.414 0 .75-.336.75-.75s-.336-.75-.75-.75h-1.75c-.965 0-1.75-.785-1.75-1.75s.785-1.75 1.75-1.75c.467 0 .906.182 1.237.513.293.293.768.293 1.061 0s.293-.768 0-1.061c-.155-.155-.322-.291-.5-.41.224-1.433 1.462-2.542 2.952-2.542 1.654 0 3 1.346 3 3 0 .36-.063.713-.187 1.047-.145.389.053.82.441.965.087.032.175.047.262.047.304 0 .59-.187.703-.489.124-.336.192-.685.234-1.04.098-.016.196-.03.297-.03.965 0 1.75.785 1.75 1.75s-.785 1.75-1.75 1.75h-.001-1.749c-.414 0-.75.336-.75.75s.336.75.75.75h1.749.001c1.792 0 3.25-1.458 3.25-3.25s-1.458-3.25-3.25-3.25"/><g fill-opacity=".75"><path d="m7.6418 9.5398c-.324.08-.625.261-.842.548-.498.662-.365 1.603.297 2.101s1.603.365 2.101-.297c.183-.244.279-.525.297-.809l.001.002v-.012c.001-.008 0-.016 0-.025l.004-2.048z"/><path d="m3.8933 12.5397c-.324.08-.626.261-.842.548-.498.662-.365 1.603.297 2.101s1.602.365 2.1-.297c.184-.244.28-.525.298-.808l.001.001v-.011-.025l.004-2.049z"/></g></g></svg>
